elementary-xfce/actions/16/node-join.svg

<?xml version="1.0" encoding="UTF-8" standalone="no"?>
<svg
   xmlns:dc="http://purl.org/dc/elements/1.1/"
   xmlns:cc="http://creativecommons.org/ns#"
   xmlns:rdf="http://www.w3.org/1999/02/22-rdf-syntax-ns#"
   xmlns:svg="http://www.w3.org/2000/svg"
   xmlns="http://www.w3.org/2000/svg"
   xmlns:xlink="http://www.w3.org/1999/xlink"
   version="1.0"
   width="16"
   height="16"
   id="svg4876">
  <defs
     id="defs4878">
    <linearGradient
       id="linearGradient7442">
      <stop
         id="stop7444"
         style="stop-color:#ffffff;stop-opacity:1"
         offset="0" />
      <stop
         id="stop7446"
         style="stop-color:#ffffff;stop-opacity:0"
         offset="1" />
    </linearGradient>
    <linearGradient
       id="linearGradient7430">
      <stop
         id="stop7432"
         style="stop-color:#d3d7cf;stop-opacity:1"
         offset="0" />
      <stop
         id="stop7434"
         style="stop-color:#fafbfa;stop-opacity:1"
         offset="1" />
    </linearGradient>
    <linearGradient
       x1="12.197592"
       y1="401.09631"
       x2="15.698984"
       y2="404.59772"
       id="linearGradient4989"
       xlink:href="#linearGradient7430"
       gradientUnits="userSpaceOnUse"
       gradientTransform="matrix(0.933332,0,0,0.933329,-21.09995,49.83527)" />
    <linearGradient
       x1="12.816311"
       y1="400.38895"
       x2="12.816311"
       y2="406.51099"
       id="linearGradient4991"
       xlink:href="#linearGradient7442"
       gradientUnits="userSpaceOnUse"
       gradientTransform="matrix(0.699998,0,0,0.699999,-17.94997,143.7502)" />
    <linearGradient
       x1="12.197592"
       y1="401.09631"
       x2="15.698984"
       y2="404.59772"
       id="linearGradient5028"
       xlink:href="#linearGradient7430"
       gradientUnits="userSpaceOnUse"
       gradientTransform="matrix(0.777779,0,0,0.777776,-18.41666,111.8616)" />
    <linearGradient
       x1="12.816311"
       y1="400.38895"
       x2="12.816311"
       y2="406.51099"
       id="linearGradient5030"
       xlink:href="#linearGradient7442"
       gradientUnits="userSpaceOnUse"
       gradientTransform="matrix(0.583335,0,0,0.583399,-15.79168,190.0984)" />
    <linearGradient
       x1="12.197592"
       y1="401.09631"
       x2="15.698984"
       y2="404.59772"
       id="linearGradient5032"
       xlink:href="#linearGradient7430"
       gradientUnits="userSpaceOnUse"
       gradientTransform="matrix(0.777775,0,0,0.777775,-19.58328,111.8623)" />
    <linearGradient
       x1="12.816311"
       y1="400.38895"
       x2="12.816311"
       y2="406.51099"
       id="linearGradient5034"
       xlink:href="#linearGradient7442"
       gradientUnits="userSpaceOnUse"
       gradientTransform="matrix(0.583327,0,0,0.583397,-16.95824,190.0994)" />
  </defs>
  <metadata
     id="metadata4881">
    <rdf:RDF>
      <cc:Work
         rdf:about="">
        <dc:format>image/svg+xml</dc:format>
        <dc:type
           rdf:resource="http://purl.org/dc/dcmitype/StillImage" />
      </cc:Work>
    </rdf:RDF>
  </metadata>
  <g
     id="layer1">
    <g
       id="g2822"
       style="opacity:0.5">
      <rect
         width="6.999999"
         height="1.9999993"
         x="-1.4999995"
         y="2.500001"
         id="rect2834"
         style="fill:#d3d7cf;fill-opacity:1;stroke:#555753;stroke-width:0.99999982;stroke-linecap:round;stroke-linejoin:round;stroke-miterlimit:4;stroke-opacity:1;stroke-dasharray:none;stroke-dashoffset:0" />
      <g
         transform="matrix(0.857143,0,0,0.857143,11.2857,-360.7143)"
         id="g17518">
        <path
           d="m -10.249987,422.58317 4.6666733,0 0,4.66666 -4.6666733,0 0,-4.66666 z"
           id="path17520"
           style="fill:url(#linearGradient5028);fill-opacity:1;stroke:#888a85;stroke-width:1.16666603;stroke-linecap:round;stroke-linejoin:round;stroke-miterlimit:4;stroke-opacity:1" />
        <path
           d="m -9.0833255,423.74964 2.3333435,0 0,2.33351 -2.3333435,0 0,-2.33351 z"
           id="path17522"
           style="fill:none;stroke:url(#linearGradient5030);stroke-width:1.16666591;stroke-linecap:round;stroke-linejoin:miter;stroke-miterlimit:4;stroke-opacity:1" />
      </g>
      <rect
         width="6.999999"
         height="1.9999993"
         x="10.5"
         y="2.500001"
         id="rect2820"
         style="fill:#d3d7cf;fill-opacity:1;stroke:#555753;stroke-width:0.99999982;stroke-linecap:round;stroke-linejoin:round;stroke-miterlimit:4;stroke-opacity:1;stroke-dasharray:none;stroke-dashoffset:0" />
      <g
         transform="matrix(0.857143,0,0,0.857143,19.2857,-360.7143)"
         id="g17524">
        <path
           d="m -11.416653,422.58351 4.6666437,0 0,4.66665 -4.6666437,0 0,-4.66665 z"
           id="path17526"
           style="fill:url(#linearGradient5032);fill-opacity:1;stroke:#888a85;stroke-width:1.16666722;stroke-linecap:round;stroke-linejoin:round;stroke-miterlimit:4;stroke-opacity:1" />
        <path
           d="m -10.249984,423.75 2.3333077,0 0,2.3335 -2.3333077,0 0,-2.3335 z"
           id="path17528"
           style="fill:none;stroke:url(#linearGradient5034);stroke-width:1.16666698;stroke-linecap:round;stroke-linejoin:miter;stroke-miterlimit:4;stroke-opacity:1" />
      </g>
    </g>
    <rect
       width="19.000008"
       height="1.9999993"
       x="-1.5000006"
       y="11.500001"
       id="rect5932"
       style="fill:#d3d7cf;fill-opacity:1;stroke:#555753;stroke-width:1.00000012;stroke-linecap:round;stroke-linejoin:round;stroke-miterlimit:4;stroke-opacity:1;stroke-dasharray:none;stroke-dashoffset:0" />
    <g
       transform="matrix(0.714287,0,0,0.714285,13.57143,-291.4282)"
       id="g17538">
      <path
         d="m -11.299976,422.69982 5.5999843,0 0,5.59997 -5.5999843,0 0,-5.59997 z"
         id="path17540"
         style="fill:url(#linearGradient4989);fill-opacity:1;stroke:#888a85;stroke-width:1.39999926;stroke-linecap:round;stroke-linejoin:round;stroke-miterlimit:4;stroke-opacity:1" />
      <path
         d="m -9.8999854,424.09971 2.7999967,0 0,2.79989 -2.7999967,0 0,-2.79989 z"
         id="path17542"
         style="fill:none;stroke:url(#linearGradient4991);stroke-width:1.39999926;stroke-linecap:round;stroke-linejoin:miter;stroke-miterlimit:4;stroke-opacity:1" />
    </g>
  </g>
</svg>

<?xml version="1.0" encoding="UTF-8" standalone="no"?>
<svg
   xmlns:dc="http://purl.org/dc/elements/1.1/"
   xmlns:cc="http://creativecommons.org/ns#"
   xmlns:rdf="http://www.w3.org/1999/02/22-rdf-syntax-ns#"
   xmlns:svg="http://www.w3.org/2000/svg"
   xmlns="http://www.w3.org/2000/svg"
   xmlns:xlink="http://www.w3.org/1999/xlink"
   width="16"
   height="16"
   id="svg4876"
   version="1.0">
  <defs
     id="defs4878">
    <linearGradient
       id="linearGradient7442">
      <stop
         style="stop-color:white;stop-opacity:1;"
         offset="0"
         id="stop7444" />
      <stop
         style="stop-color:white;stop-opacity:0;"
         offset="1"
         id="stop7446" />
    </linearGradient>
    <linearGradient
       id="linearGradient7430">
      <stop
         style="stop-color:#d3d7cf;stop-opacity:1;"
         offset="0"
         id="stop7432" />
      <stop
         style="stop-color:#fafbfa;stop-opacity:1"
         offset="1"
         id="stop7434" />
    </linearGradient>
    <linearGradient
       xlink:href="#linearGradient7430"
       id="linearGradient4989"
       gradientUnits="userSpaceOnUse"
       gradientTransform="matrix(0.933332,0,0,0.933329,-21.09995,49.83527)"
       x1="12.197592"
       y1="401.09631"
       x2="15.698984"
       y2="404.59772" />
    <linearGradient
       xlink:href="#linearGradient7442"
       id="linearGradient4991"
       gradientUnits="userSpaceOnUse"
       gradientTransform="matrix(0.699998,0,0,0.699999,-17.94997,143.7502)"
       x1="12.816311"
       y1="400.38895"
       x2="12.816311"
       y2="406.51099" />
    <linearGradient
       xlink:href="#linearGradient7430"
       id="linearGradient5028"
       gradientUnits="userSpaceOnUse"
       gradientTransform="matrix(0.777779,0,0,0.777776,-18.41666,111.8616)"
       x1="12.197592"
       y1="401.09631"
       x2="15.698984"
       y2="404.59772" />
    <linearGradient
       xlink:href="#linearGradient7442"
       id="linearGradient5030"
       gradientUnits="userSpaceOnUse"
       gradientTransform="matrix(0.583335,0,0,0.583399,-15.79168,190.0984)"
       x1="12.816311"
       y1="400.38895"
       x2="12.816311"
       y2="406.51099" />
    <linearGradient
       xlink:href="#linearGradient7430"
       id="linearGradient5032"
       gradientUnits="userSpaceOnUse"
       gradientTransform="matrix(0.777775,0,0,0.777775,-19.58328,111.8623)"
       x1="12.197592"
       y1="401.09631"
       x2="15.698984"
       y2="404.59772" />
    <linearGradient
       xlink:href="#linearGradient7442"
       id="linearGradient5034"
       gradientUnits="userSpaceOnUse"
       gradientTransform="matrix(0.583327,0,0,0.583397,-16.95824,190.0994)"
       x1="12.816311"
       y1="400.38895"
       x2="12.816311"
       y2="406.51099" />
  </defs>
  <metadata
     id="metadata4881">
    <rdf:RDF>
      <cc:Work
         rdf:about="">
        <dc:format>image/svg+xml</dc:format>
        <dc:type
           rdf:resource="http://purl.org/dc/dcmitype/StillImage" />
      </cc:Work>
    </rdf:RDF>
  </metadata>
  <g
     id="layer1">
    <g
       id="g2822"
       style="opacity:0.5">
      <rect
         y="2.500001"
         x="-1.4999995"
         height="1.9999993"
         width="6.999999"
         id="rect2834"
         style="opacity:1;fill:#d3d7cf;fill-opacity:1;stroke:#555753;stroke-width:0.99999982;stroke-linecap:round;stroke-linejoin:round;stroke-miterlimit:4;stroke-dasharray:none;stroke-dashoffset:0;stroke-opacity:1" />
      <g
         id="g17518"
         transform="matrix(0.857143,0,0,0.857143,11.2857,-360.7143)"
         style="opacity:1">
        <path
           style="fill:url(#linearGradient5028);fill-opacity:1;stroke:#888a85;stroke-width:1.16666603;stroke-linecap:round;stroke-linejoin:round;stroke-miterlimit:4;stroke-opacity:1"
           d="M -10.249987,422.58317 L -5.5833137,422.58317 L -5.5833137,427.24983 L -10.249987,427.24983 L -10.249987,422.58317 z "
           id="path17520" />
        <path
           style="fill:none;fill-opacity:1;stroke:url(#linearGradient5030);stroke-width:1.16666591;stroke-linecap:round;stroke-linejoin:miter;stroke-miterlimit:4;stroke-opacity:1"
           d="M -9.0833255,423.74964 L -6.749982,423.74964 L -6.749982,426.08315 L -9.0833255,426.08315 L -9.0833255,423.74964 z "
           id="path17522" />
      </g>
      <rect
         y="2.500001"
         x="10.5"
         height="1.9999993"
         width="6.999999"
         id="rect2820"
         style="opacity:1;fill:#d3d7cf;fill-opacity:1;stroke:#555753;stroke-width:0.99999982;stroke-linecap:round;stroke-linejoin:round;stroke-miterlimit:4;stroke-dasharray:none;stroke-dashoffset:0;stroke-opacity:1" />
      <g
         id="g17524"
         transform="matrix(0.857143,0,0,0.857143,19.2857,-360.7143)"
         style="opacity:1">
        <path
           style="fill:url(#linearGradient5032);fill-opacity:1;stroke:#888a85;stroke-width:1.16666722;stroke-linecap:round;stroke-linejoin:round;stroke-miterlimit:4;stroke-opacity:1"
           d="M -11.416653,422.58351 L -6.7500093,422.58351 L -6.7500093,427.25016 L -11.416653,427.25016 L -11.416653,422.58351 z "
           id="path17526" />
        <path
           style="fill:none;fill-opacity:1;stroke:url(#linearGradient5034);stroke-width:1.16666698;stroke-linecap:round;stroke-linejoin:miter;stroke-miterlimit:4;stroke-opacity:1"
           d="M -10.249984,423.75 L -7.9166763,423.75 L -7.9166763,426.0835 L -10.249984,426.0835 L -10.249984,423.75 z "
           id="path17528" />
      </g>
    </g>
    <rect
       style="opacity:1;fill:#d3d7cf;fill-opacity:1;stroke:#555753;stroke-width:1.00000012;stroke-linecap:round;stroke-linejoin:round;stroke-miterlimit:4;stroke-dasharray:none;stroke-dashoffset:0;stroke-opacity:1"
       id="rect5932"
       width="19.000008"
       height="1.9999993"
       x="-1.5000006"
       y="11.500001" />
    <g
       transform="matrix(0.714287,0,0,0.714285,13.57143,-291.4282)"
       id="g17538">
      <path
         id="path17540"
         d="M -11.299976,422.69982 L -5.6999917,422.69982 L -5.6999917,428.29979 L -11.299976,428.29979 L -11.299976,422.69982 z "
         style="fill:url(#linearGradient4989);fill-opacity:1;stroke:#888a85;stroke-width:1.39999926;stroke-linecap:round;stroke-linejoin:round;stroke-miterlimit:4;stroke-opacity:1" />
      <path
         id="path17542"
         d="M -9.8999854,424.09971 L -7.0999887,424.09971 L -7.0999887,426.8996 L -9.8999854,426.8996 L -9.8999854,424.09971 z "
         style="fill:none;fill-opacity:1;stroke:url(#linearGradient4991);stroke-width:1.39999926;stroke-linecap:round;stroke-linejoin:miter;stroke-miterlimit:4;stroke-opacity:1" />
    </g>
  </g>
</svg>
